X:198
T:Nos Galan - Deck the Halls
M:4/4
L:1/4
Q:100
C:Trad.
R:Processional
K:D
A>G F E | D D/E/ F D | E/F/ G/E/ F>E |
| D C D2 :|| E>F G E | F/E/ F/G/ A E |
F/E/ F/G/ A d | c B A2 |
A>G F E | D D/E/ F D | E/F/ G/E/ F/G/ F/E / | D C D2 ||
